images/icon-vk.svg

<svg width="40" height="40" viewBox="0 0 40 40" fill="none" xmlns="http://www.w3.org/2000/svg">
<path d="M30.9566 23.8203C30.434 23.1931 29.8402 22.6309 29.266 22.0872C29.0618 21.8939 28.8506 21.694 28.6471 21.4952C28.0628 20.9239 28.0415 20.7092 28.5041 20.0603C28.8242 19.613 29.1636 19.1651 29.4917 18.732C29.7894 18.339 30.0973 17.9326 30.3923 17.5248L30.4529 17.441C31.0168 16.6608 31.6 15.854 31.9103 14.8807C31.9909 14.6239 32.0755 14.246 31.882 13.9301C31.6887 13.6144 31.3136 13.5181 31.0482 13.4731C30.9169 13.4508 30.7866 13.4478 30.6656 13.4478L26.9728 13.4451L26.9423 13.4449C26.3839 13.4449 26.0076 13.708 25.792 14.2493C25.5862 14.7666 25.36 15.3174 25.102 15.8411C24.5885 16.8841 23.9364 18.0852 22.9927 19.0871L22.9528 19.1297C22.8413 19.2494 22.7151 19.3851 22.6228 19.3851C22.6087 19.3851 22.5933 19.3823 22.5758 19.3769C22.3804 19.3007 22.2492 18.8275 22.2551 18.6074C22.2552 18.6043 22.2552 18.6013 22.2552 18.5983L22.2527 14.3301C22.2527 14.3153 22.2516 14.3006 22.2497 14.2859C22.1557 13.5921 21.9477 13.1602 21.1614 13.0062C21.1405 13.002 21.1192 13 21.0979 13H17.258C16.6325 13 16.2877 13.2543 15.9637 13.6348C15.8763 13.7366 15.6942 13.9484 15.7844 14.2053C15.876 14.466 16.1732 14.5218 16.27 14.5399C16.7504 14.6313 17.0212 14.9251 17.0979 15.4386C17.2318 16.3301 17.2482 17.2817 17.1496 18.4334C17.1222 18.7534 17.0678 19.0006 16.9782 19.2118C16.9574 19.2611 16.8836 19.422 16.8084 19.4221C16.7845 19.4221 16.7153 19.4127 16.5893 19.3259C16.2914 19.1218 16.0735 18.8306 15.8194 18.4709C14.9551 17.2494 14.2297 15.9037 13.6014 14.3561C13.3684 13.7864 12.9333 13.4674 12.3756 13.4581C11.7628 13.4488 11.2073 13.4443 10.6774 13.4443C10.0984 13.4443 9.56168 13.4496 9.03756 13.4605C8.58887 13.4684 8.27851 13.6029 8.11521 13.8606C7.95165 14.1184 7.96228 14.4571 8.14686 14.8671C9.62438 18.1518 10.964 20.5401 12.4907 22.6113C13.5604 24.0605 14.6334 25.0637 15.867 25.7679C17.1667 26.5114 18.6232 26.8729 20.3196 26.8729C20.5119 26.8729 20.7108 26.8682 20.9113 26.8589C21.897 26.8108 22.2628 26.454 22.309 25.4942C22.331 25.0037 22.3846 24.4893 22.6258 24.0506C22.778 23.7742 22.9199 23.7742 22.9665 23.7742C23.0564 23.7742 23.1677 23.8156 23.2874 23.8931C23.5019 24.0331 23.6859 24.2207 23.8367 24.3846C23.9787 24.5403 24.1191 24.6976 24.2596 24.855C24.5628 25.1946 24.8763 25.5457 25.2039 25.8787C25.9208 26.6081 26.7105 26.9289 27.6176 26.8593H31.0034C31.0106 26.8593 31.0178 26.859 31.025 26.8585C31.3624 26.8363 31.6546 26.6491 31.8267 26.3451C32.0399 25.9685 32.0356 25.488 31.8152 25.0596C31.5651 24.5751 31.2408 24.1611 30.9566 23.8203Z" fill="#CCCCCC"/>
<path d="M39.8907 11.7601C39.797 9.63478 39.4533 8.17362 38.961 6.9075C38.4531 5.56354 37.6717 4.3603 36.6479 3.36004C35.6476 2.34421 34.4365 1.55487 33.1081 1.0549C31.8346 0.562551 30.3811 0.218854 28.2557 0.125147C26.1145 0.0235032 25.4347 0 20.004 0C14.5732 0 13.8934 0.0235032 11.7601 0.117211C9.63478 0.210918 8.17362 0.55492 6.9078 1.04696C5.56354 1.55487 4.3603 2.33628 3.36004 3.36004C2.34421 4.3603 1.55518 5.57148 1.0549 6.89987C0.562551 8.17362 0.218854 9.62685 0.125147 11.7522C0.0235032 13.8934 0 14.5732 0 20.004C0 25.4347 0.0235032 26.1145 0.117211 28.2478C0.210918 30.3731 0.55492 31.8343 1.04727 33.1004C1.55518 34.4444 2.34421 35.6476 3.36004 36.6479C4.3603 37.6637 5.57148 38.4531 6.89987 38.953C8.17362 39.4454 9.62685 39.7891 11.7525 39.8828C13.8855 39.9768 14.5656 40 19.9963 40C25.4271 40 26.1069 39.9768 28.2402 39.8828C30.3655 39.7891 31.8267 39.4454 33.0925 38.953C35.7807 37.9137 37.9061 35.7883 38.9454 33.1004C39.4375 31.8267 39.7814 30.3731 39.8752 28.2478C39.9689 26.1145 39.9924 25.4347 39.9924 20.004C39.9924 14.5732 39.9844 13.8934 39.8907 11.7601ZM36.2886 28.0915C36.2026 30.045 35.8744 31.0999 35.6009 31.8032C34.9288 33.5458 33.5458 34.9288 31.8032 35.6009C31.0999 35.8744 30.0374 36.2026 28.0915 36.2883C25.9817 36.3823 25.349 36.4055 20.0119 36.4055C14.6748 36.4055 14.0342 36.3823 11.932 36.2883C9.97848 36.2026 8.92358 35.8744 8.22032 35.6009C7.35314 35.2804 6.5638 34.7725 5.92311 34.1083C5.25892 33.4597 4.751 32.6783 4.43051 31.8111C4.15701 31.1079 3.82888 30.045 3.74311 28.0994C3.6491 25.9897 3.6259 25.3566 3.6259 20.0195C3.6259 14.6825 3.6491 14.0418 3.74311 11.9399C3.82888 9.98642 4.15701 8.93152 4.43051 8.22826C4.751 7.36077 5.25892 6.57174 5.93105 5.93074C6.57937 5.26655 7.36077 4.75863 8.22826 4.43844C8.93152 4.16495 9.99435 3.83682 11.9399 3.75074C14.0497 3.65704 14.6828 3.63353 20.0195 3.63353C25.3645 3.63353 25.9973 3.65704 28.0994 3.75074C30.053 3.83682 31.1079 4.16495 31.8111 4.43844C32.6783 4.75863 33.4676 5.26655 34.1083 5.93074C34.7725 6.57937 35.2804 7.36077 35.6009 8.22826C35.8744 8.93152 36.2026 9.99405 36.2886 11.9399C36.3823 14.0497 36.4058 14.6825 36.4058 20.0195C36.4058 25.3566 36.3823 25.9817 36.2886 28.0915Z" fill="#CCCCCC"/>
</svg>

<svg width="40" height="40" fill="none" xmlns="http://www.w3.org/2000/svg"><path d="M30.957 23.82c-.523-.627-1.117-1.19-1.691-1.733a56.396 56.396 0 01-.619-.592c-.584-.571-.605-.786-.143-1.435.32-.447.66-.895.988-1.328.297-.393.605-.8.9-1.207l.06-.084c.565-.78 1.148-1.587 1.458-2.56.08-.257.165-.635-.028-.95-.193-.317-.568-.413-.834-.458a2.275 2.275 0 00-.382-.025l-3.693-.003h-.03c-.56 0-.935.263-1.151.804a22.13 22.13 0 01-.69 1.592c-.514 1.043-1.166 2.244-2.11 3.246l-.04.043c-.11.12-.237.255-.33.255a.16.16 0 01-.046-.008c-.196-.076-.327-.55-.32-.77v-.009l-.003-4.268a.344.344 0 00-.003-.044c-.094-.694-.302-1.126-1.089-1.28a.322.322 0 00-.063-.006h-3.84c-.625 0-.97.254-1.294.635-.088.102-.27.313-.18.57.092.261.39.317.486.335.48.091.751.385.828.899.134.891.15 1.843.052 2.994a2.52 2.52 0 01-.172.779c-.02.05-.094.21-.17.21-.023 0-.093-.01-.219-.096-.298-.204-.515-.495-.77-.855-.864-1.222-1.59-2.567-2.218-4.115-.233-.57-.668-.889-1.225-.898a111.3 111.3 0 00-1.699-.014c-.579 0-1.115.006-1.64.016-.448.008-.758.143-.922.4-.163.258-.153.597.032 1.007 1.477 3.285 2.817 5.673 4.344 7.744 1.07 1.45 2.142 2.453 3.376 3.157 1.3.743 2.756 1.105 4.453 1.105.192 0 .39-.005.591-.014.986-.048 1.352-.405 1.398-1.365.022-.49.076-1.005.317-1.443.152-.277.294-.277.34-.277a.63.63 0 01.321.12c.215.14.399.327.55.49.142.156.282.314.423.471.303.34.616.69.944 1.024.717.73 1.506 1.05 2.414.98h3.407a.987.987 0 00.802-.514c.213-.377.209-.857-.012-1.285-.25-.485-.574-.899-.858-1.24z" fill="#CCC"/><path d="M39.89 11.76c-.093-2.125-.437-3.586-.929-4.853a9.76 9.76 0 00-2.313-3.547 9.844 9.844 0 00-3.54-2.305c-1.273-.492-2.727-.836-4.852-.93C26.114.024 25.435 0 20.004 0c-5.43 0-6.11.024-8.244.117-2.125.094-3.586.438-4.852.93A9.76 9.76 0 003.36 3.36 9.848 9.848 0 001.055 6.9C.563 8.174.219 9.627.125 11.752.024 13.893 0 14.573 0 20.004c0 5.43.024 6.11.117 8.244.094 2.125.438 3.586.93 4.852a9.864 9.864 0 002.313 3.548 9.843 9.843 0 003.54 2.305c1.274.492 2.727.836 4.852.93 2.133.094 2.814.117 8.244.117 5.431 0 6.11-.023 8.244-.117 2.126-.094 3.587-.438 4.853-.93a10.231 10.231 0 005.852-5.853c.492-1.273.836-2.727.93-4.852.094-2.134.117-2.813.117-8.244 0-5.43-.008-6.11-.101-8.244zm-3.6 16.332c-.086 1.953-.415 3.008-.688 3.711a6.635 6.635 0 01-3.798 3.798c-.703.273-1.766.602-3.712.687-2.11.094-2.742.118-8.08.118-5.336 0-5.977-.024-8.079-.118-1.954-.085-3.008-.414-3.712-.687a6.155 6.155 0 01-2.297-1.493 6.218 6.218 0 01-1.492-2.297c-.274-.703-.602-1.766-.688-3.712-.094-2.11-.117-2.742-.117-8.08 0-5.336.023-5.977.117-8.08.086-1.953.414-3.007.688-3.71a6.08 6.08 0 011.5-2.298 6.21 6.21 0 012.297-1.493c.704-.273 1.766-.601 3.712-.687 2.11-.094 2.743-.117 8.08-.117 5.345 0 5.977.023 8.08.117 1.953.086 3.008.414 3.711.687a6.15 6.15 0 012.297 1.493 6.217 6.217 0 011.493 2.297c.273.704.602 1.766.688 3.712.093 2.11.117 2.742.117 8.08 0 5.337-.024 5.962-.117 8.072z" fill="#CCC"/></svg>
